src/4-icons/right.svg

<svg width="260" height="260" viewBox="0 0 260 260" fill="none" xmlns="http://www.w3.org/2000/svg">
<path d="M147.293 37.3057C148.661 37.296 150.018 37.5558 151.285 38.0703C152.553 38.5849 153.706 39.3441 154.68 40.3045L238.188 123.223C239.091 124.116 239.807 125.179 240.296 126.351C240.785 127.523 241.037 128.78 241.037 130.05C241.037 131.32 240.785 132.577 240.296 133.749C239.807 134.921 239.091 135.984 238.188 136.877L154.69 219.596C152.727 221.559 150.064 222.662 147.288 222.662C144.512 222.662 141.849 221.559 139.886 219.596C137.923 217.632 136.82 214.97 136.82 212.193C136.82 209.417 137.923 206.754 139.886 204.791L205.051 139.816H28.8487C26.2294 139.816 23.7173 138.776 21.8652 136.924C20.013 135.071 18.9725 132.559 18.9725 129.94C18.9725 127.321 20.013 124.809 21.8652 122.957C23.7173 121.104 26.2294 120.064 28.8487 120.064H205.051L139.886 55.0888C138.426 53.6234 137.433 51.7582 137.032 49.7288C136.631 47.6993 136.841 45.5966 137.635 43.6863C138.429 41.776 139.771 40.1437 141.491 38.9956C143.212 37.8475 145.235 37.2351 147.303 37.2357L147.293 37.3057ZM147.303 29.2388C143.655 29.2389 140.089 30.3196 137.055 32.3446C134.02 34.3696 131.654 37.248 130.254 40.6167C128.854 43.9854 128.484 47.6932 129.189 51.2723C129.895 54.8513 131.645 58.1412 134.218 60.7267L185.708 112.037H28.8487C24.1085 112.037 19.5624 113.92 16.2105 117.272C12.8586 120.624 10.9756 125.17 10.9756 129.91C10.9756 134.65 12.8586 139.196 16.2105 142.548C19.5624 145.9 24.1085 147.783 28.8487 147.783H185.708L134.238 199.073C130.811 202.542 128.894 207.226 128.908 212.102C128.922 216.979 130.864 221.652 134.311 225.101C137.757 228.551 142.429 230.496 147.305 230.514C152.182 230.531 156.867 228.618 160.338 225.193L243.816 142.505C245.465 140.869 246.774 138.922 247.667 136.778C248.56 134.633 249.02 132.333 249.02 130.01C249.02 127.687 248.56 125.387 247.667 123.242C246.774 121.098 245.465 119.151 243.816 117.515L160.318 34.6767C158.611 32.9722 156.584 31.6208 154.355 30.6997C152.125 29.7787 149.736 29.306 147.323 29.3087L147.303 29.2388Z" fill="black"/>
</svg>

<svg width="260" height="260" fill="none" xmlns="http://www.w3.org/2000/svg"><path d="M147.293 37.306a10.416 10.416 0 0 1 7.387 2.998l83.508 82.919a9.593 9.593 0 0 1 2.849 6.827 9.606 9.606 0 0 1-2.849 6.827l-83.498 82.719a10.469 10.469 0 1 1-14.804-14.805l65.165-64.975H28.849a9.876 9.876 0 1 1 0-19.752H205.05l-65.165-64.975a10.47 10.47 0 0 1-2.251-11.403 10.469 10.469 0 0 1 9.668-6.45l-.01.07Zm.01-8.067a18.46 18.46 0 0 0-18.114 22.033 18.471 18.471 0 0 0 5.029 9.455l51.49 51.31H28.848a17.873 17.873 0 1 0 0 35.746h156.86l-51.47 51.29a18.465 18.465 0 0 0 13.067 31.441 18.464 18.464 0 0 0 13.033-5.321l83.478-82.688a17.601 17.601 0 0 0 0-24.99l-83.498-82.838a18.367 18.367 0 0 0-12.995-5.368l-.02-.07Z" fill="#000"/></svg>
